X:1
T:Title
%%score { 1 | 2 } 3
L:1/8
Q:1/4=100
M:4/4
K:F
V:1 treble nm="Grand Piano, Soprano"
V:2 treble 
V:3 bass nm="Choir Pad, From the Deep Star-Laden Sky"
V:1
 F>G A2 A2 c2 | B2 A6 | G>F E2 c2 c2 | c2 d2 c2 B2 | G2 A2 A2 c2 | B2 A6 | c>A G2 c2 c2 | =B2 c6 | %8
w: By~George~Frederick~Root * * * *||||||||
 z2 c2 d>A c2 | z2 c2 d>G c2 | z2 c2 f>e f2 | F>G A2 G2 F2- | F6 z2 |] %13
w: |||||
V:2
 A,>B, C2 F2 E2 | D2 C6 | C>C C2 E2 E2 | G2 B2 A2 G2 | E2 F2 F2 E2 | D2 C2 F4 | A>F E2 E2 F2 | %7
 F2 E6 | z2 F2 F>F F2 | z2 E2 E>E E2 | z2 F2 F>C F2 | z z/ F/ F2 E2 z2 | z8 |] %13
V:3
 F,>F, F,2 F,2 F,2 | F,2 F,6 | [F,B,]>[F,A,] [C,G,]2 [C,G,]2 [C,G,]2 | [C,G,]2 [C,G,]4 [C,G,]2 | %4
 [C,C]2 [F,C]2 [F,C]2 [F,C]2 | [F,C]2 [F,C]6 | [F,C]>[F,C] [G,C]2 [G,C]2 [G,D]2 | [G,D]2 [C,C]6 | %8
 z2 [F,A,]2 [F,A,]>[F,A,] [F,A,]2 | z2 [C,B,]2 [C,B,]>[C,B,] [C,B,]2 | %10
 z2 [F,A,]2 [F,A,]>[G,B,] [A,C]2 | [A,C]>[B,D] C2 [C,B,]2 [F,A,]2- | [F,A,]6 z2 |] %13

